assets/icon/bodySlot.svg

<svg viewBox="0 0 150 225" xmlns="http://www.w3.org/2000/svg"><path d="m74.5 159-30.26-23.33-1.84-30.37-16.47-2v-34.5l29.89-1 18.68 15.68 18.68-15.68 29.89 1v34.48l-16.47 2-1.84 30.37zm-27.82-24.62 27.82 21.49 27.82-21.49 1.88-31.32 16.34-2v-29.8l-26.49-.94-19.55 16.43-19.57-16.43-26.49.94v29.82l16.34 2z" fill="#f69200" transform="translate(.5 -.75)"/><g fill="none"><path d="m0 0h150"/><path d="m150 225h-150"/></g></svg>

<svg id="Layer_1" data-name="Layer 1" xmlns="http://www.w3.org/2000/svg" viewBox="0 0 150 225"><g id="Layer_2" data-name="Layer 2"><g id="Layer_1-2" data-name="Layer 1-2"><path d="M74.5,159,44.24,135.67,42.4,105.3l-16.47-2V68.8l29.89-1L74.5,83.48,93.18,67.8l29.89,1v34.48l-16.47,2-1.84,30.37ZM46.68,134.38,74.5,155.87l27.82-21.49,1.88-31.32,16.34-2V71.26l-26.49-.94L74.5,86.75,54.93,70.32l-26.49.94v29.82l16.34,2Z" transform="translate(0.5 -0.75)" fill="#f69200"/><line x2="150" fill="none"/><line x1="150" y1="225" y2="225" fill="none"/></g></g></svg>
